public/icons/smiley.svg

<svg width="76" height="76" viewBox="0 0 76 76" fill="none" xmlns="http://www.w3.org/2000/svg">
<path d="M52.0853 22.9675C42.553 12.6843 25.6458 13.4288 17.7678 24.845C12.2522 32.0396 10.951 42.1216 16.1416 50.438C22.5565 60.717 36.4519 63.1173 46.5352 57.0999C58.5805 49.9109 61.7789 33.4259 52.0853 22.9675ZM18.1513 49.2628C12.262 40.6037 15.2267 30.3296 21.9359 23.5333C24.8844 20.8536 28.3065 18.9353 32.4956 18.1147C39.1463 16.8164 45.7879 20.0239 50.433 24.617C60.0428 34.117 55.1894 49.2867 44.6078 55.5314C35.6074 60.8443 23.9217 57.7473 18.1513 49.2628Z" fill="#1574E5"/>
<path d="M31.1741 35.7481C31.2395 35.6778 31.2965 35.6109 31.3535 35.5405C31.4594 35.4627 31.5468 35.3625 31.6097 35.2471C32.4161 33.6989 32.3556 31.7412 31.7947 30.1234C31.5836 29.5119 30.7568 28.9785 30.1424 29.4514C28.2495 30.9066 29.1903 32.9812 29.2874 34.967C29.3332 35.8931 30.4767 36.4765 31.1741 35.7481Z" fill="#1574E5"/>
<path d="M40.6741 35.7481C40.7395 35.6778 40.7965 35.6109 40.8535 35.5405C40.9594 35.4627 41.0468 35.3625 41.1097 35.2471C41.9168 33.6989 41.8563 31.7405 41.2954 30.1234C41.0843 29.5119 40.2568 28.9785 39.6424 29.4514C37.7495 30.9066 38.6903 32.9812 38.7874 34.967C38.8297 35.8931 39.9704 36.4765 40.6741 35.7481Z" fill="#1574E5"/>
<path d="M49.97 42.3066C50.3767 42.2539 50.6547 41.9548 50.5632 41.5284C50.376 40.6565 49.2557 40.2131 48.5014 39.9218C47.7857 39.6459 46.9532 39.6192 46.353 40.1329C46.3191 40.1671 46.3 40.2132 46.3 40.2613C46.3 40.3095 46.3191 40.3556 46.353 40.3898C46.6598 40.6853 47.0187 40.876 47.3853 41.0667C47.385 41.0691 47.385 41.0714 47.3853 41.0738C45.9314 45.5409 40.8338 47.3853 36.6412 48.1713C30.7455 49.2768 26.2636 46.303 23.0984 41.4587C23.6276 41.1294 24.0639 40.7789 24.4551 40.1991C24.4724 40.1691 24.4826 40.1356 24.4849 40.1011C24.4873 40.0666 24.4817 40.032 24.4687 40C24.4557 39.968 24.4355 39.9393 24.4097 39.9163C24.384 39.8932 24.3533 39.8763 24.32 39.8669C23.3236 39.6227 22.572 39.8936 21.7163 40.4045C21.3021 40.6584 20.9303 40.9757 20.6143 41.3447C20.3328 41.6656 20.3328 41.952 20.1921 42.3264C20.1414 42.4671 20.2969 42.6078 20.4299 42.5642C20.7508 42.4608 21.059 42.4833 21.382 42.3425C21.4883 42.2961 21.5932 42.2475 21.7008 42.2018C23.833 48.3043 30.0284 51.072 36.1436 50.4555C41.275 49.9362 47.3621 47.298 48.7815 41.9288C49.1622 42.168 49.5633 42.3629 49.97 42.3066Z" fill="#1574E5"/>
<path d="M58.2251 45.36C57.335 48.6238 56.0479 51.6877 53.7552 54.2182C51.4766 56.7333 48.5112 58.0675 45.5775 59.622C45.5317 59.6466 45.5641 59.7127 45.6113 59.7022C52.3077 58.204 57.6812 52.155 58.3764 45.3804C58.3856 45.2917 58.2477 45.2784 58.2251 45.36Z" fill="#1574E5"/>
<path d="M58.8923 41.6515C58.8884 41.6377 58.88 41.6254 58.8685 41.6167C58.857 41.608 58.843 41.6033 58.8286 41.6033C58.8141 41.6033 58.8001 41.608 58.7886 41.6167C58.7771 41.6254 58.7688 41.6377 58.7649 41.6515C58.5481 42.4031 58.4011 43.3904 58.5861 44.1567C58.5909 44.1706 58.5999 44.1825 58.6118 44.191C58.6237 44.1995 58.638 44.2041 58.6526 44.2041C58.6673 44.2041 58.6815 44.1995 58.6935 44.191C58.7054 44.1825 58.7144 44.1706 58.7191 44.1567C58.9239 43.3981 59.0907 42.4186 58.8923 41.6515Z" fill="#1574E5"/>
<path d="M11.0862 35.5117C12.2522 31.6223 13.1128 27.982 15.409 24.5395C17.8438 20.8873 21.3342 18.4877 25.1806 16.5173C25.2658 16.4744 25.2053 16.3428 25.1166 16.3667C21.1393 17.4223 17.9163 20.2117 15.4759 23.4389C13.0073 26.6992 10.8933 31.3338 10.9722 35.4955C10.9743 35.5081 10.9805 35.5197 10.9897 35.5286C10.9988 35.5375 11.0106 35.5432 11.0233 35.545C11.0359 35.5468 11.0488 35.5446 11.0601 35.5386C11.0714 35.5326 11.0805 35.5232 11.0862 35.5117Z" fill="#1574E5"/>
<path d="M11.1298 36.5539C11.1292 36.5318 11.1215 36.5105 11.1078 36.4932C11.0941 36.4758 11.0752 36.4633 11.0539 36.4575C11.0326 36.4518 11.0099 36.453 10.9894 36.4611C10.9688 36.4693 10.9514 36.4838 10.9398 36.5025C10.7378 36.8255 10.7371 37.2668 10.7202 37.6383C10.6896 38.176 10.7765 38.7139 10.975 39.2146C10.9786 39.2273 10.9867 39.2383 10.9977 39.2455C11.0088 39.2527 11.0221 39.2557 11.0352 39.2539C11.0483 39.2521 11.0603 39.2457 11.069 39.2357C11.0777 39.2258 11.0826 39.2131 11.0826 39.1998C11.0826 38.7347 11.0826 38.2759 11.0749 37.8107C11.0657 37.3955 11.1741 36.9635 11.1298 36.5539Z" fill="#1574E5"/>
</svg>

<svg xmlns="http://www.w3.org/2000/svg" width="76" height="76" fill="none"><path fill="#1574E5" d="M52.085 22.968c-9.532-10.284-26.44-9.54-34.317 1.877-5.516 7.195-6.817 17.277-1.626 25.593 6.415 10.279 20.31 12.68 30.393 6.662 12.046-7.19 15.244-23.674 5.55-34.132M18.151 49.263c-5.889-8.66-2.924-18.933 3.785-25.73 2.948-2.68 6.37-4.598 10.56-5.418 6.65-1.299 13.292 1.909 17.937 6.502 9.61 9.5 4.756 24.67-5.825 30.914-9 5.313-20.686 2.216-26.457-6.268"/><path fill="#1574E5" d="M31.174 35.748c.066-.07.123-.137.18-.207a.9.9 0 0 0 .256-.294c.806-1.548.746-3.506.185-5.124-.211-.611-1.038-1.145-1.653-.672-1.892 1.456-.952 3.53-.855 5.516.046.926 1.19 1.51 1.887.781M40.674 35.748c.066-.07.123-.137.18-.207a.9.9 0 0 0 .256-.294c.807-1.548.746-3.506.185-5.124-.21-.611-1.038-1.145-1.653-.672-1.893 1.456-.952 3.53-.855 5.516.043.926 1.183 1.51 1.887.781M49.97 42.307c.407-.053.685-.352.593-.779-.187-.871-1.307-1.315-2.062-1.606-.715-.276-1.548-.303-2.148.21a.18.18 0 0 0 0 .258c.307.295.666.486 1.032.677v.007c-1.454 4.467-6.551 6.311-10.744 7.097-5.895 1.106-10.377-1.868-13.543-6.712.53-.33.966-.68 1.357-1.26a.226.226 0 0 0-.135-.332c-.996-.244-1.748.027-2.604.538a4.7 4.7 0 0 0-1.102.94c-.281.32-.281.607-.422.981-.05.141.105.282.238.238.32-.103.629-.08.952-.221q.158-.072.319-.141c2.132 6.102 8.327 8.87 14.443 8.254 5.131-.52 11.218-3.158 12.638-8.527.38.239.781.434 1.188.378M58.225 45.36c-.89 3.264-2.177 6.328-4.47 8.858-2.278 2.515-5.244 3.85-8.178 5.404-.045.025-.013.09.034.08 6.697-1.498 12.07-7.547 12.765-14.322.01-.088-.128-.102-.15-.02M58.892 41.652a.066.066 0 0 0-.103-.035.07.07 0 0 0-.024.035c-.217.751-.364 1.738-.179 2.505a.07.07 0 0 0 .133 0c.205-.759.372-1.738.173-2.505M11.086 35.512c1.166-3.89 2.027-7.53 4.323-10.972 2.435-3.653 5.925-6.052 9.772-8.023.085-.043.024-.174-.064-.15-3.978 1.055-7.2 3.845-9.641 7.072-2.469 3.26-4.583 7.895-4.504 12.057a.06.06 0 0 0 .051.049.06.06 0 0 0 .063-.033M11.13 36.554a.1.1 0 0 0-.076-.096.1.1 0 0 0-.114.044c-.202.323-.203.765-.22 1.136-.03.538.056 1.076.255 1.577a.055.055 0 0 0 .108-.015c0-.465 0-.924-.008-1.39-.01-.415.1-.846.055-1.256"/></svg>
